src/lib/packages/icons/src/assets/line/light-emergency.svg

<svg width="24" height="24" viewBox="0 0 24 24" fill="none" xmlns="http://www.w3.org/2000/svg">
<path d="M12.75 6.76099C12.75 7.17499 12.414 7.51099 12 7.51099C10.487 7.51099 9.25909 8.64495 9.14209 10.1479C9.11109 10.5409 8.78302 10.8391 8.39502 10.8391C8.37502 10.8391 8.35596 10.8389 8.33496 10.8369C7.92196 10.8049 7.613 10.444 7.646 10.031C7.826 7.73901 9.697 6.01099 12 6.01099C12.414 6.01099 12.75 6.34699 12.75 6.76099ZM21.75 19.499V21C21.75 21.414 21.414 21.75 21 21.75H3C2.586 21.75 2.25 21.414 2.25 21V19.5C2.25 18.491 2.92189 17.6461 3.83789 17.3611V11.4709C3.83789 5.95595 7.118 2.25 12 2.25C16.882 2.25 20.1621 5.95595 20.1621 11.4709V17.3611C21.0781 17.6451 21.75 18.49 21.75 19.499ZM5.33789 17.25H18.6621V11.4709C18.6621 6.78095 16.047 3.75 12 3.75C7.953 3.75 5.33789 6.78095 5.33789 11.4709V17.25ZM20.25 19.499C20.25 19.086 19.914 18.75 19.501 18.75H19.4121H4.58789H4.5C4.087 18.75 3.75 19.086 3.75 19.5V20.25H20.25V19.499Z" fill="currentColor"/>
</svg>

<svg xmlns="http://www.w3.org/2000/svg" width="24" height="24" fill="none"><path fill="currentColor" d="M12.75 6.761a.75.75 0 0 1-.75.75 2.842 2.842 0 0 0-2.858 2.637.75.75 0 0 1-1.496-.117A4.333 4.333 0 0 1 12 6.011a.75.75 0 0 1 .75.75Zm9 12.738V21a.75.75 0 0 1-.75.75H3a.75.75 0 0 1-.75-.75v-1.5c0-1.009.672-1.854 1.588-2.139v-5.89c0-5.515 3.28-9.221 8.162-9.221 4.882 0 8.162 3.706 8.162 9.22v5.891A2.243 2.243 0 0 1 21.75 19.5ZM5.338 17.25h13.324v-5.78c0-4.69-2.615-7.72-6.662-7.72s-6.662 3.031-6.662 7.72v5.78Zm14.912 2.249a.75.75 0 0 0-.749-.749H4.5a.75.75 0 0 0-.75.75v.75h16.5v-.751Z"/></svg>
